src/pos-icons/ruler-square-compass.svg

<svg height="24" viewBox="0 0 24 24" width="24" xmlns="http://www.w3.org/2000/svg"><path d="m20 19.88v2.12l-1.8-1.17-4.79-9a4.94 4.94 0 0 0 1.78-1m-.19-3.83a3 3 0 0 1 -3 3 3.27 3.27 0 0 1 -.44 0l-5.76 10.83-1.8 1.17v-2.12l5.79-10.88a3 3 0 0 1 2.21-5v-2a1 1 0 0 1 1 1v1.18a3 3 0 0 1 2 2.82m-2 0a1 1 0 1 0 -1 1 1 1 0 0 0 1-1m-8.78 3 1.78 1.8-1.44 2.76-2.46-2.46m9.9 5.66-1.5-1.51-1.5 2.75 3 3 3-3-1.47-2.77m6.25-6.23-1.78 1.8 1.5 2.76 2.4-2.46z"/></svg>

<?xml version="1.0" encoding="UTF-8"?><!DOCTYPE svg PUBLIC "-//W3C//DTD SVG 1.1//EN" "http://www.w3.org/Graphics/SVG/1.1/DTD/svg11.dtd"><svg xmlns="http://www.w3.org/2000/svg" xmlns:xlink="http://www.w3.org/1999/xlink" version="1.1" id="mdi-ruler-square-compass" width="24" height="24" viewBox="0 0 24 24"><path d="M20 19.88V22L18.2 20.83L13.41 11.83A4.94 4.94 0 0 0 15.19 10.83M15 7A3 3 0 0 1 12 10A3.27 3.27 0 0 1 11.56 10L5.8 20.83L4 22V19.88L9.79 9A3 3 0 0 1 12 4V2A1 1 0 0 1 13 3V4.18A3 3 0 0 1 15 7M13 7A1 1 0 1 0 12 8A1 1 0 0 0 13 7M4.22 10L6 11.8L4.56 14.56L2.1 12.1M12 17.76L10.5 16.25L9 19L12 22L15 19L13.53 16.23M19.78 10L18 11.8L19.5 14.56L21.9 12.1Z" /></svg>
